X:8010
T:Huntsman's Chorus
R:Reel
C:von Weber?
O:England
M:4/4
L:1/8
Q:1/4=160
K:G
D2|"G"G2D2 GABc|d4 B4|"D"A2d2 A2d2|"G"BcBA G2D2|
"G"G2D2 GABc|d4 "C"c4|"G"BAGA "D"B2A2|"G"G6:|
|:A2|"G"B3B B2A2|"Em"G4 A2B2|"C"c3c c2B/c/B|"D"A2F2 E2D2|
"G"B3A GABc|d4 "C"c4|"G"BAGA "D"B2A2|"G"G6:|
% --------------------------------- I ---------------------------------------

